Increase/img/features/02.svg

<svg width="28" height="18" viewBox="0 0 28 18" fill="none" xmlns="http://www.w3.org/2000/svg">
<path fill-rule="evenodd" clip-rule="evenodd" d="M0.75 0.75H12.853L14.467 3.91129H21.0044V5.71774H27.1715L20.4739 17.25H0.75V0.75ZM18.5044 6.41129H12.9365L11.3224 3.25H3.25V14.75H18.5044V6.41129ZM21.0044 11.3587V8.21774H22.8285L21.0044 11.3587Z" fill="#4074F8"/>
</svg>

<svg width="28" height="18" fill="none" xmlns="http://www.w3.org/2000/svg"><path fill-rule="evenodd" clip-rule="evenodd" d="M.75.75h12.103l1.614 3.161h6.537v1.807h6.168L20.474 17.25H.75V.75zm17.754 5.661h-5.568L11.322 3.25H3.25v11.5h15.254V6.411zm2.5 4.948V8.218h1.824l-1.824 3.14z" fill="#4074F8"/></svg>
